src/pos-icons/television-play.svg

<svg height="24" viewBox="0 0 24 24" width="24" xmlns="http://www.w3.org/2000/svg"><path d="m21 3h-18c-1.11 0-2 .89-2 2v12a2 2 0 0 0 2 2h5v2h8v-2h5a2 2 0 0 0 2-2v-12c0-1.11-.9-2-2-2m0 14h-18v-12h18m-5 6-7 4v-8"/></svg>

<?xml version="1.0" encoding="UTF-8"?><!DOCTYPE svg PUBLIC "-//W3C//DTD SVG 1.1//EN" "http://www.w3.org/Graphics/SVG/1.1/DTD/svg11.dtd"><svg xmlns="http://www.w3.org/2000/svg" xmlns:xlink="http://www.w3.org/1999/xlink" version="1.1" id="mdi-television-play" width="24" height="24" viewBox="0 0 24 24"><path d="M21,3H3C1.89,3 1,3.89 1,5V17A2,2 0 0,0 3,19H8V21H16V19H21A2,2 0 0,0 23,17V5C23,3.89 22.1,3 21,3M21,17H3V5H21M16,11L9,15V7" /></svg>
